X: 4151
T: Blue Fiddle, The
R: polka
M: 2/4
K: Dmajor
|:d>B AF GB|A>F DE/F/ ED|AF/E/ DE/F/ GB|Ad dc d2:|
|:e>c AB/c/ df|ec f/g/e f2|e>c AB/c/ df|1 ea ge fd:|2 ea ge fe||
|:da e>g fd|gb eg a/g/f/e/|fa ea cd|Bg Af ed/c/:|

